;FLAVOR:Marlin
;TIME:544
;Filament used: 0.109027m
;Layer height: 0.12
;MINX:99.343
;MINY:101.605
;MINZ:0.144
;MAXX:120.548
;MAXY:118.415
;MAXZ:7.554
;Generated with Cura_SteamEngine master
M140 S45
M105
M190 S45
M104 S200
M105
M109 S200
M82 ;absolute extrusion mode
; Ender 3 Custom Start G-code
G92 E0 ; Reset Extruder
G28 ; Home all axes
G1 Z2.0 F3000 ; Move Z Axis up little to prevent scratching of Heat Bed
G1 X0.1 Y20 Z0.3 F5000.0 ; Move to start position
G1 X0.1 Y200.0 Z0.3 F1500.0 E15 ; Draw the first line
G1 X0.4 Y200.0 Z0.3 F5000.0 ; Move to side a little
G1 X0.4 Y20 Z0.3 F1500.0 E30 ; Draw the second line
G92 E0 ; Reset Extruder
G1 Z2.0 F3000 ; Move Z Axis up little to prevent scratching of Heat Bed
G1 X5 Y20 Z0.3 F5000.0 ; Move over to prevent blob squish
G92 E0
G92 E0
G1 F1500 E-6.5
;LAYER_COUNT:58
;LAYER:-5
M107
G0 F9000 X102.202 Y104.146 Z0.144
;TYPE:SUPPORT-INTERFACE
G1 F1500 E0
G1 F1125 X102.453 Y103.932 E0.0158
G1 X102.682 Y103.757 E0.0296
G1 X102.833 Y103.653 E0.03838
G1 X103.429 Y103.284 E0.07196
G1 X103.56 Y103.213 E0.07909
G1 X103.964 Y103.043 E0.10009
G1 X104.388 Y102.901 E0.1215
G1 X104.664 Y102.828 E0.13517
G1 X104.841 Y102.788 E0.14387
G1 X105.314 Y102.699 E0.16692
G1 X105.456 Y102.681 E0.17377
G1 X105.88 Y102.656 E0.19412
G1 X106.041 Y102.651 E0.20183
G1 X112.255 Y102.65 E0.49945
G1 X112.51 Y102.658 E0.51167
G1 X112.803 Y102.674 E0.52572
G1 X113.181 Y102.713 E0.54392
G1 X113.485 Y102.757 E0.55863
G1 X113.75 Y102.806 E0.57154
G1 X114.151 Y102.903 E0.5913
G1 X114.452 Y102.99 E0.60631
G1 X114.749 Y103.091 E0.62133
G1 X115.147 Y103.249 E0.64184
G1 X115.381 Y103.351 E0.65407
G1 X115.675 Y103.499 E0.66983
G1 X115.896 Y103.619 E0.68187
G1 X116.175 Y103.786 E0.69745
G1 X116.403 Y103.942 E0.71068
G1 X116.695 Y104.151 E0.72788
G1 X116.929 Y104.335 E0.74213
G1 X117.193 Y104.564 E0.75887
G1 X117.471 Y104.826 E0.77717
G1 X117.735 Y105.112 E0.79581
G1 X117.872 Y105.27 E0.80583
G1 X118.093 Y105.545 E0.82272
G1 X118.266 Y105.785 E0.83689
G1 X118.429 Y106.024 E0.85075
G1 X118.626 Y106.35 E0.86899
G1 X118.787 Y106.64 E0.88488
G1 X118.933 Y106.953 E0.90142
G1 X118.984 Y107.07 E0.90753
G1 X119.104 Y107.36 E0.92256
G1 X119.218 Y107.673 E0.93852
G1 X119.297 Y107.934 E0.95158
G1 X119.393 Y108.297 E0.96956
G1 X119.428 Y108.451 E0.97713
G1 X119.503 Y108.835 E0.99587
G1 X119.539 Y109.083 E1.00787
G1 X119.573 Y109.419 E1.02404
G1 X119.598 Y109.898 E1.04702
G1 X119.59 Y110.245 E1.06364
G1 X119.574 Y110.563 E1.07889
G1 X119.558 Y110.746 E1.08769
G1 X119.513 Y111.112 E1.10535
G1 X119.453 Y111.449 E1.12174
G1 X119.387 Y111.756 E1.13678
G1 X119.326 Y111.976 E1.14772
G1 X119.205 Y112.368 E1.16737
G1 X119.119 Y112.614 E1.17985
G1 X119.02 Y112.855 E1.19233
G1 X118.907 Y113.113 E1.20582
G1 X118.746 Y113.438 E1.22319
G1 X118.607 Y113.684 E1.23672
G1 X118.404 Y114.012 E1.25519
G1 X118.273 Y114.207 E1.26645
G1 X118.04 Y114.518 E1.28506
G1 X117.946 Y114.637 E1.29232
G1 X117.728 Y114.894 E1.30846
G1 X117.48 Y115.165 E1.32606
G1 X117.304 Y115.334 E1.33774
G1 X117.11 Y115.51 E1.35029
G1 X116.848 Y115.726 E1.36655
G1 X116.52 Y115.977 E1.38633
G1 X116.238 Y116.17 E1.4027
G1 X115.927 Y116.359 E1.42013
G1 X115.763 Y116.451 E1.42913
G1 X115.483 Y116.594 E1.44419
G1 X115.375 Y116.645 E1.44991
G1 X114.923 Y116.841 E1.47351
G1 X114.773 Y116.899 E1.48121
G1 X114.436 Y117.011 E1.49822
G1 X114.102 Y117.11 E1.5149
G1 X114.021 Y117.132 E1.51892
G1 X113.762 Y117.189 E1.53163
G1 X113.318 Y117.271 E1.55325
G1 X112.972 Y117.308 E1.56992
G1 X112.902 Y117.315 E1.57329
G1 X112.505 Y117.34 E1.59234
G1 X112.228 Y117.349 E1.60561
G1 X105.192 Y117.35 E1.9426
G1 X105.066 Y117.346 E1.94864
G1 X104.689 Y117.322 E1.96673
G1 X104.391 Y117.285 E1.98111
G1 X104.107 Y117.23 E1.99497
G1 X103.816 Y117.154 E2.00937
G1 X103.556 Y117.069 E2.02247
G1 X103.279 Y116.959 E2.03675
G1 X103.02 Y116.836 E2.05048
G1 X102.763 Y116.694 E2.06454
G1 X102.524 Y116.542 E2.07811
G1 X102.276 Y116.359 E2.09287
G1 X102.076 Y116.191 E2.10538
G1 X101.843 Y115.971 E2.12073
G1 X101.654 Y115.767 E2.13405
G1 X101.473 Y115.546 E2.14773
G1 X101.263 Y115.254 E2.16495
G1 X101.083 Y114.971 E2.18102
G1 X100.899 Y114.634 E2.19941
G1 X100.78 Y114.377 E2.21297
G1 X100.673 Y114.108 E2.22684
G1 X100.579 Y113.814 E2.24162
G1 X100.511 Y113.539 E2.25519
G1 X100.459 Y113.265 E2.26855
G1 X100.423 Y112.963 E2.28311
G1 X100.407 Y112.692 E2.29611
G1 X100.409 Y112.386 E2.31077
G1 X100.428 Y112.114 E2.32383
G1 X100.471 Y111.791 E2.33944
G1 X100.532 Y111.488 E2.35424
G1 X100.622 Y110.823 E2.38638
G1 X100.626 Y110.138 E2.41919
G1 X100.582 Y109.801 E2.43546
G1 X100.605 Y109.795 E2.4366
G1 X100.499 Y109.225 E2.46437
G1 X100.471 Y109.02 E2.47428
G1 X100.412 Y108.374 E2.50535
G1 X100.409 Y108.167 E2.51526
G1 X100.462 Y107.532 E2.54578
G1 X100.544 Y107.073 E2.56812
G1 X100.722 Y106.406 E2.60118
G1 X100.802 Y106.197 E2.6119
G1 X101.088 Y105.602 E2.64352
G1 X101.27 Y105.281 E2.66119
G1 X101.333 Y105.185 E2.66669
G1 X101.58 Y104.826 E2.68756
G1 X101.816 Y104.53 E2.70569
G1 X101.896 Y104.447 E2.71121
G1 X102.202 Y104.146 E2.73177
G0 F9000 X102.4 Y103.977
G1 F1125 X102.4 Y116.45 E3.32916
G0 F9000 X104 Y117.202
G1 F1125 X104 Y103.03 E4.00792
G0 F9000 X105.6 Y102.672
G1 F1125 X105.6 Y117.35 E4.71092
G0 F9000 X107.2 Y117.35
G1 F1125 X107.2 Y102.65 E5.41497
G0 F9000 X108.8 Y102.65
G1 F1125 X108.8 Y117.35 E6.11902
G0 F9000 X110.4 Y117.35
G1 F1125 X110.4 Y102.65 E6.82307
G0 F9000 X112 Y102.65
G1 F1125 X112 Y117.35 E7.52712
G0 F9000 X113.6 Y117.219
G1 F1125 X113.6 Y102.779 E8.21872
G0 F9000 X115.2 Y103.273
G1 F1125 X115.2 Y116.721 E8.8628
G0 F9000 X116.8 Y115.763
G1 F1125 X116.8 Y104.234 E9.41498
G0 F9000 X118.4 Y105.982
G1 F1125 X118.4 Y114.018 E9.79986
G1 F1500 E3.29986
G0 F9000 X119.129 Y114.84
G0 X118.119 Y116.029
G0 X116.799 Y117.075
G0 X115.321 Y117.829
G0 X113.796 Y118.267
G0 X112.133 Y118.415
G0 X104.587 Y118.382
G0 X103.52 Y118.177
G0 X102.523 Y117.778
G0 X101.621 Y117.199
G0 X100.848 Y116.463
G0 X100.458 Y115.917
G0 X99.95 Y115.114
G0 X100.8 Y114.42
G1 F1500 E9.79986
G1 F1125 X100.8 Y106.202 E10.19346
G1 F1500 E3.69346
G0 F300 X100.8 Y106.202 Z0.324
G0 F9000 X99.703 Y106.097
G0 X99.402 Y107.43
G0 X99.373 Y108
G0 X99.343 Y112.706
G0 X100.448 Y113.175
;TIME_ELAPSED:19.046826
;LAYER:-4
;TYPE:SUPPORT
G1 F1500 E10.19346
G1 F1125 X104.578 Y117.306 E10.54317
G1 X104.39 Y117.284 E10.55451
G1 X104.106 Y117.229 E10.57183
G1 X103.816 Y117.153 E10.58977
G1 X103.555 Y117.068 E10.60621
G1 X103.278 Y116.958 E10.62405
G1 X103.019 Y116.835 E10.64122
G1 X102.763 Y116.693 E10.65874
G1 X102.524 Y116.541 E10.6757
G1 X102.275 Y116.358 E10.6942
G1 X102.076 Y116.19 E10.70979
G1 X101.842 Y115.97 E10.72902
G1 X101.653 Y115.766 E10.74567
G1 X101.472 Y115.545 E10.76277
G1 X101.262 Y115.253 E10.7843
G1 X101.182 Y115.134 E10.79289
G1 X101.143 Y115.073 E10.79722
G1 X101.083 Y114.97 E10.80436
G1 X100.898 Y114.633 E10.82737
G1 X100.779 Y114.375 E10.84438
G1 X100.673 Y114.107 E10.86164
G1 X100.578 Y113.813 E10.88014
G1 X100.51 Y113.538 E10.8971
G1 X100.458 Y113.264 E10.91379
G1 F1500 E4.41379
G0 F9000 X99.47 Y113.766
G0 X99.799 Y114.79
G0 X100.394 Y115.869
G0 X101.096 Y116.73
G0 X101.922 Y117.42
G0 X102.866 Y117.94
G0 X103.151 Y118.033
G0 X104.223 Y118.337
G0 X104.578 Y117.306
G1 F1500 E10.91379
G1 F1125 X104.689 Y117.321 E10.9205
G1 X105.066 Y117.345 E10.94311
G1 X105.191 Y117.349 E10.9506
G1 X106.034 Y117.348 E11.00107
G1 X100.471 Y111.785 E11.47207
G1 X100.531 Y111.487 E11.49027
G1 X100.622 Y110.822 E11.53045
G1 X100.623 Y110.522 E11.54841
G1 X107.449 Y117.348 E12.12635
G1 X108.863 Y117.348 E12.211
G1 X100.464 Y108.949 E12.92211
G1 X100.411 Y108.372 E12.9568
G1 X100.406 Y108.238 E12.96483
G1 X100.409 Y108.166 E12.96914
G1 X100.46 Y107.531 E13.00728
G1 X110.277 Y117.348 E13.83845
G1 X111.691 Y117.348 E13.92311
G1 X100.728 Y106.384 E14.85135
G1 X100.749 Y106.319 E14.85544
G1 X100.802 Y106.196 E14.86346
G1 X101.087 Y105.6 E14.90301
G1 X101.177 Y105.435 E14.91426
G1 X101.182 Y105.425 E14.91493
G1 X113.055 Y117.298 E15.92017
G1 X113.282 Y117.275 E15.93383
G1 X113.521 Y117.234 E15.94835
G1 X113.762 Y117.188 E15.96304
G1 X114.02 Y117.13 E15.97887
G1 X114.102 Y117.108 E15.98395
G1 X114.239 Y117.067 E15.99252
G1 X101.763 Y104.591 E17.04882
G1 X101.815 Y104.529 E17.05366
G1 X101.896 Y104.446 E17.0606
G1 X102.202 Y104.145 E17.0863
G1 X102.34 Y104.022 E17.09737
G1 X102.49 Y103.904 E17.10879
G1 X115.273 Y116.687 E18.19108
G1 X115.374 Y116.644 E18.19766
G1 X115.483 Y116.593 E18.20486
G1 X115.763 Y116.45 E18.22368
G1 X115.927 Y116.358 E18.23494
G1 X116.195 Y116.195 E18.25372
G1 X103.339 Y103.339 E19.34219
G1 X103.428 Y103.284 E19.34846
G1 X103.532 Y103.225 E19.35562
G1 X103.963 Y103.043 E19.38362
G1 X104.173 Y102.966 E19.39702
G1 X104.333 Y102.919 E19.407
G1 X117.009 Y115.595 E20.48023
G1 X117.109 Y115.51 E20.48809
G1 X117.303 Y115.333 E20.50381
G1 X117.478 Y115.165 E20.51833
G1 X117.725 Y114.897 E20.54015
G1 X105.506 Y102.678 E21.57469
G1 X105.879 Y102.656 E21.59706
G1 X106.04 Y102.65 E21.60671
G1 X106.893 Y102.65 E21.65778
G1 X118.345 Y114.102 E22.62738
G1 X118.402 Y114.011 E22.63381
G1 X118.606 Y113.683 E22.65693
G1 X118.745 Y113.437 E22.67385
G1 X118.861 Y113.204 E22.68943
G1 X108.307 Y102.65 E23.583
G1 X109.721 Y102.65 E23.66765
G1 X119.259 Y112.188 E24.4752
G1 X119.325 Y111.976 E24.48849
G1 X119.385 Y111.756 E24.50215
G1 X119.406 Y111.666 E24.50768
G1 X119.472 Y111.345 E24.5273
G1 X119.512 Y111.111 E24.54151
G1 X119.522 Y111.036 E24.54604
G1 X111.135 Y102.65 E25.2561
G1 X112.253 Y102.649 E25.32303
G1 X112.509 Y102.657 E25.33836
G1 X112.56 Y102.66 E25.34142
G1 X119.586 Y109.687 E25.93633
G1 X119.571 Y109.419 E25.9524
G1 X119.527 Y108.988 E25.97834
G1 X119.502 Y108.835 E25.98762
G1 X119.426 Y108.451 E26.01105
G1 X119.392 Y108.296 E26.02056
G1 X119.344 Y108.106 E26.03229
G1 X119.315 Y108.001 E26.03881
G1 X114.242 Y102.929 E26.46828
G1 X114.262 Y102.934 E26.46951
G1 X114.451 Y102.99 E26.48132
G1 X114.578 Y103.029 E26.48927
G1 X114.747 Y103.091 E26.50005
G1 X115.059 Y103.212 E26.52008
G1 X115.323 Y103.325 E26.53727
G1 X115.38 Y103.35 E26.541
G1 X115.674 Y103.499 E26.56073
G1 X115.895 Y103.618 E26.57576
G1 X116.174 Y103.785 E26.59523
G1 X116.402 Y103.941 E26.61176
G1 X116.693 Y104.151 E26.63325
G1 X116.851 Y104.27 E26.64509
G1 X117.129 Y104.507 E26.66696
G1 X117.3 Y104.664 E26.68086
G1 X117.47 Y104.825 E26.69488
G1 X117.733 Y105.112 E26.71818
G1 X117.871 Y105.27 E26.73074
G1 X118.091 Y105.544 E26.75178
G1 X118.265 Y105.784 E26.76953
G1 X118.428 Y106.024 E26.7869
G1 X118.475 Y106.096 E26.79204
G1 X118.625 Y106.35 E26.8097
G1 X118.786 Y106.639 E26.82951
G1 X118.837 Y106.744 E26.8365
G1 X118.983 Y107.07 E26.85788
G1 X119.103 Y107.36 E26.87667
G1 X119.18 Y107.56 E26.8895
G1 X119.217 Y107.673 E26.89662
G1 X119.295 Y107.934 E26.91293
G0 F300 X119.295 Y107.934 Z0.444
G0 F9000 X119.701 Y108.8
;TIME_ELAPSED:35.793367
;LAYER:-3
;TYPE:SUPPORT-INTERFACE
G1 F1500 X100.25 Y108.8 E27.30109
G1 X100.213 Y108.4 E27.30911
G1 X119.622 Y108.4 E27.69644
G1 X119.586 Y108.243 E27.69965
G1 X119.539 Y108.057 E27.70348
G1 X119.524 Y108 E27.70466
G1 X100.222 Y108 E28.08985
G1 X100.255 Y107.6 E28.09786
G1 X119.406 Y107.6 E28.48004
G1 X119.369 Y107.491 E28.48234
G1 X119.287 Y107.278 E28.48689
G1 X119.255 Y107.2 E28.48857
G1 X100.311 Y107.2 E28.86662
G1 X100.346 Y107.038 E28.86993
G1 X100.41 Y106.8 E28.87485
G1 X119.084 Y106.8 E29.24751
G1 X118.986 Y106.589 E29.25215
G1 X118.883 Y106.4 E29.25644
G1 X100.517 Y106.4 E29.62296
G1 X100.534 Y106.336 E29.62428
G1 X100.558 Y106.26 E29.62587
G1 X100.625 Y106.103 E29.62928
G1 X100.675 Y106 E29.63156
G1 X118.652 Y106 E29.99031
G1 X118.647 Y105.993 E29.99048
G1 X118.479 Y105.741 E29.99653
G1 X118.38 Y105.6 E29.99997
G1 X100.867 Y105.6 E30.34946
G1 X100.903 Y105.524 E30.35113
G1 X101.01 Y105.325 E30.35564
G1 X101.086 Y105.2 E30.35856
G1 X118.073 Y105.2 E30.69756
G1 X117.992 Y105.101 E30.70011
G1 X117.815 Y104.902 E30.70542
G1 X117.72 Y104.8 E30.70821
G1 X101.355 Y104.8 E31.03479
G1 X101.409 Y104.72 E31.03671
G1 X101.551 Y104.534 E31.04138
G1 X101.654 Y104.411 E31.04459
G1 X101.665 Y104.4 E31.0449
G1 X117.309 Y104.4 E31.35709
G1 X117.263 Y104.358 E31.35833
G1 X116.98 Y104.117 E31.36575
G1 X116.827 Y104 E31.36959
G1 X102.067 Y104 E31.66414
G1 X102.222 Y103.862 E31.66829
G1 X102.332 Y103.772 E31.67112
G1 X102.558 Y103.6 E31.67679
G1 X116.254 Y103.6 E31.95011
G1 X116.207 Y103.571 E31.95121
G1 X115.996 Y103.447 E31.95609
G1 X115.771 Y103.323 E31.96122
G1 X115.526 Y103.2 E31.96669
G1 X103.185 Y103.2 E32.21297
G1 X103.315 Y103.119 E32.21603
G1 X103.451 Y103.043 E32.21914
G1 X103.881 Y102.861 E32.22845
G1 X104.05 Y102.8 E32.23204
G1 X114.513 Y102.8 E32.44084
G0 F9000 X114.506 Y102.798
G1 F1500 X114.323 Y102.744 E32.44465
G1 X114 Y102.658 E32.45132
G1 X113.792 Y102.611 E32.45557
G1 X113.741 Y102.599 E32.45662
G1 X113.521 Y102.561 E32.46107
G1 X113.204 Y102.514 E32.46747
G1 X112.993 Y102.488 E32.47171
G1 X112.818 Y102.475 E32.47521
G1 X112.52 Y102.458 E32.48117
G1 X112.261 Y102.45 E32.48634
G1 X106.035 Y102.451 E32.61059
G1 X105.88 Y102.456 E32.61368
G1 X105.381 Y102.487 E32.62366
G1 X105.277 Y102.503 E32.62576
G1 X104.8 Y102.593 E32.63545
G1 X104.626 Y102.632 E32.63901
G1 X104.401 Y102.69 E32.64364
G1 X104.11 Y102.778 E32.64971
G1 X104.05 Y102.8 E32.65099
G1 F1500 E26.15099
G0 F9000 X103.754 Y101.988
G0 X102.881 Y102.371
G0 X101.659 Y103.205
G0 X100.873 Y103.999
G0 X100.135 Y105.127
G0 X99.703 Y106.097
G0 X99.402 Y107.43
G0 X99.349 Y108.437
G0 X99.363 Y113.06
G0 X99.556 Y114.106
G0 X99.95 Y115.114
G0 X100.625 Y116.19
G0 X101.359 Y116.978
G0 X102.059 Y117.491
G0 X103.023 Y118.004
G0 X103.342 Y117.2
G1 F1500 E32.65099
G1 X114.497 Y117.2 E32.8736
G1 X114.413 Y117.228 E32.87536
G1 X114.071 Y117.326 E32.88246
G1 X113.904 Y117.364 E32.88588
G1 X113.562 Y117.432 E32.89284
G1 X113.302 Y117.475 E32.8981
G1 X112.923 Y117.513 E32.9057
G1 X112.505 Y117.54 E32.91406
G1 X112.235 Y117.549 E32.91945
G1 X105.185 Y117.55 E33.06014
G1 X105.066 Y117.546 E33.06252
G1 X104.662 Y117.521 E33.07059
G1 X104.359 Y117.483 E33.07669
G1 X104.064 Y117.426 E33.08268
G1 X103.767 Y117.348 E33.08881
G1 X103.483 Y117.256 E33.09477
G1 F1500 E26.59477
G0 F9000 X103.52 Y118.177
G0 X104.587 Y118.382
G0 X112.985 Y118.375
G0 X113.779 Y118.24
G0 X114.665 Y118.055
G0 X114.497 Y117.2
G1 F1500 E33.09477
G1 X114.836 Y117.088 E33.10189
G1 X114.988 Y117.031 E33.10513
G1 X115.454 Y116.828 E33.11528
G1 X115.514 Y116.8 E33.1166
G1 X102.558 Y116.8 E33.37515
G1 X102.412 Y116.707 E33.3786
G1 X102.151 Y116.515 E33.38507
G1 X102.014 Y116.4 E33.38864
G1 X116.244 Y116.4 E33.67261
G1 X116.342 Y116.341 E33.6749
G1 X116.548 Y116.204 E33.67983
G1 X116.637 Y116.139 E33.68203
G1 X116.819 Y116 E33.6866
G1 X101.597 Y116 E33.99037
G1 X101.501 Y115.896 E33.9932
G1 X101.307 Y115.658 E33.99933
G1 X101.265 Y115.6 E34.00076
G1 X117.307 Y115.6 E34.32089
G1 X117.522 Y115.405 E34.32668
G1 X117.62 Y115.307 E34.32945
G1 X117.718 Y115.2 E34.33235
G1 X100.985 Y115.2 E34.66627
G1 X100.976 Y115.186 E34.6666
G1 X100.91 Y115.071 E34.66925
G1 X100.762 Y114.8 E34.67541
G1 X118.07 Y114.8 E35.02081
G1 X118.099 Y114.766 E35.0217
G1 X118.197 Y114.642 E35.02486
G1 X118.376 Y114.4 E35.03086
G1 X100.573 Y114.4 E35.38614
G1 X100.487 Y114.18 E35.39086
G1 X100.429 Y114 E35.39463
G1 X118.645 Y114 E35.75815
G1 X118.774 Y113.793 E35.76302
G1 X118.883 Y113.6 E35.76744
G1 X100.32 Y113.6 E36.13788
G1 X100.317 Y113.588 E36.13813
G1 X100.261 Y113.289 E36.1442
G1 X100.25 Y113.2 E36.14599
G1 X119.085 Y113.2 E36.52186
G1 X119.173 Y113.009 E36.52606
G1 X119.258 Y112.8 E36.53056
G1 X100.213 Y112.8 E36.91063
G1 X100.207 Y112.678 E36.91306
G1 X100.209 Y112.4 E36.91861
G1 X119.402 Y112.4 E37.30163
G1 X119.515 Y112.038 E37.3092
G1 X119.525 Y112 E37.30998
G1 X100.241 Y112 E37.69481
G1 X100.27 Y111.777 E37.6993
G1 X100.306 Y111.6 E37.70291
G1 X119.624 Y111.6 E38.08842
G1 X119.67 Y111.383 E38.09285
G1 X119.7 Y111.2 E38.09655
G1 X100.369 Y111.2 E38.48232
G1 X100.422 Y110.809 E38.49019
G1 X100.423 Y110.8 E38.49037
G1 X119.753 Y110.8 E38.87612
G1 X119.757 Y110.769 E38.87675
G1 X119.768 Y110.652 E38.87909
G1 X119.781 Y110.4 E38.88413
G1 X100.425 Y110.4 E39.2704
